X:1
T:If I Speak a Foreign Tongue
T:Tune: Friedrich Filitz, 1847 Text under copyright: for copyrighted material see Psalter Hymnal 222
T:77 75 CAPETOWN www.hymnary.org/text/if_i_speak_a_foreign_tongue
T:If I Speak a Foreign Tongue
T:This tune is in the public domain. You may freely use this score for personal and congregational worship. If you reproduce the score, please credit Hymnary.org as the source. 
T:This tune is in the public domain. You may freely use this score for personal and congregational worship. If you reproduce the score, please credit Hymnary.org as the source. 
Z:This tune is in the public domain. You may freely use this score for personal and congregational worship. If you reproduce the score, please credit Hymnary.org as the source.
%%score ( 1 2 ) ( 3 4 )
L:1/8
M:4/4
K:D
V:1 treble nm="SOPRANO ALTO" snm="S. A."
V:2 treble 
V:3 bass nm="TENOR BASS" snm="T. B."
V:4 bass 
V:1
 A2 F2 B2 A2 | G2 G2 F4 | d2 c2 d2 A2 | G2 F2 E4 |1 A2 d2 c2 B2 | A2 ^G2 A4 | F2 F2 E2 E2 | D8 |] %8
V:2
 D2 D2 D2 D2 | D2 C2 D4 | F2 E2 D2 D2 | B,C D2 C4 |1 D2 D2 E2 F2 | E3 D (D2 C2) | D2 D2 D2 C2 | %7
 D8 |] %8
V:3
 F,2 A,2 G,2 A,2 | B,2 A,2 A,4 | A,2 A,2 F,2 F,2 | G,2 A,2 A,4 |1 A,2 ^G,2 A,2 D2 | C2 B,2 A,4 | %6
 A,2 B,2 B,2 A,G, | F,8 |] %8
V:4
 D,2 D,2 G,2 F,2 | E,2 A,,2 D,4 | D,2 A,,2 B,,2 F,2 | E,2 D,2 A,,4 |1 F,2 B,,2 C,2 D,2 | %5
 E,2 E,2 A,,4 | D,2 B,,2 G,,2 A,,2 | D,8 |] %8

